src/lib/packages/icons/src/assets/line/chat-dots-minus.svg

<svg width="24" height="24" viewBox="0 0 24 24" fill="none" xmlns="http://www.w3.org/2000/svg">
<path d="M21.75 18C21.75 18.414 21.414 18.75 21 18.75H16C15.586 18.75 15.25 18.414 15.25 18C15.25 17.586 15.586 17.25 16 17.25H21C21.414 17.25 21.75 17.586 21.75 18ZM12.9109 20.193C11.4609 20.369 9.90498 20.114 8.56398 19.491C7.97698 19.21 7.27703 19.176 6.58303 19.397L4.08498 20.236C3.95998 20.278 3.8699 20.214 3.8279 20.172C3.7859 20.13 3.72193 20.041 3.76393 19.916L4.60793 17.405C4.82493 16.722 4.78996 16.023 4.51296 15.442C4.01596 14.372 3.75295 13.182 3.75295 11.998C3.75295 7.44999 7.453 3.74902 12.001 3.74902C16.55 3.74902 20.25 7.44899 20.25 11.998C20.25 12.412 20.586 12.748 21 12.748C21.414 12.748 21.75 12.412 21.75 11.998C21.75 6.62299 17.377 2.24902 12.001 2.24902C6.626 2.24902 2.25295 6.62199 2.25295 11.998C2.25295 13.398 2.56405 14.807 3.15505 16.081C3.27005 16.324 3.27893 16.632 3.18093 16.939L2.34011 19.44C2.13011 20.072 2.29311 20.759 2.76711 21.232C3.10311 21.568 3.54692 21.748 4.00392 21.748C4.18992 21.748 4.37705 21.718 4.56105 21.657L7.05007 20.821C7.36807 20.719 7.67707 20.728 7.92507 20.846C9.52707 21.59 11.3711 21.889 13.0901 21.681C13.5021 21.631 13.7939 21.257 13.7439 20.846C13.6949 20.436 13.3149 20.145 12.9109 20.193ZM12.01 11C11.458 11 11.0149 11.448 11.0149 12C11.0149 12.552 11.468 13 12.02 13C12.573 13 13.02 12.552 13.02 12C13.02 11.448 12.573 11 12.02 11H12.01ZM16.02 13C16.573 13 17.02 12.552 17.02 12C17.02 11.448 16.573 11 16.02 11H16.01C15.458 11 15.0149 11.448 15.0149 12C15.0149 12.552 15.468 13 16.02 13ZM8.01003 11C7.45803 11 7.01491 11.448 7.01491 12C7.01491 12.552 7.46804 13 8.02004 13C8.57304 13 9.02004 12.552 9.02004 12C9.02004 11.448 8.57304 11 8.02004 11H8.01003Z" fill="currentColor"/>
</svg>

<svg xmlns="http://www.w3.org/2000/svg" width="24" height="24" fill="none"><path fill="currentColor" d="M21.75 18a.75.75 0 0 1-.75.75h-5a.75.75 0 0 1 0-1.5h5a.75.75 0 0 1 .75.75Zm-8.84 2.193a8.168 8.168 0 0 1-4.346-.702c-.587-.281-1.287-.315-1.981-.094l-2.498.839a.244.244 0 0 1-.257-.064.242.242 0 0 1-.064-.256l.844-2.511c.217-.683.182-1.382-.095-1.963a8.227 8.227 0 0 1-.76-3.444c0-4.548 3.7-8.249 8.248-8.249 4.549 0 8.249 3.7 8.249 8.249a.75.75 0 0 0 1.5 0c0-5.375-4.373-9.749-9.749-9.749-5.375 0-9.748 4.373-9.748 9.749 0 1.4.311 2.809.902 4.083.115.243.124.551.026.858l-.84 2.501a1.743 1.743 0 0 0 .426 1.792 1.745 1.745 0 0 0 1.794.425l2.49-.836c.317-.102.626-.093.874.025 1.602.744 3.446 1.043 5.165.835a.75.75 0 0 0-.18-1.488ZM12.01 11a.996.996 0 0 0-.995 1c0 .552.453 1 1.005 1a1 1 0 1 0 0-2h-.01Zm4.01 2a1 1 0 1 0 0-2h-.01a.996.996 0 0 0-.995 1c0 .552.453 1 1.005 1Zm-8.01-2a.996.996 0 0 0-.995 1c0 .552.453 1 1.005 1a1 1 0 1 0 0-2h-.01Z"/></svg>
